X:1
T:Let Me Be a Friend to Man
T:Let Me Be a Friend to Man
T:Walter Stillman Martin, 1905
T:Sam Walter Foss, 1898 & “M”
T:Public Domain Courtesy of the Cyber Hymnal™
T:Public Domain Courtesy of the Cyber Hymnal™
C:Walter Stillman Martin, 1905
Z:Public Domain
Z:Courtesy of the Cyber Hymnal™
%%score ( 1 2 ) ( 3 4 )
L:1/8
Q:1/4=98
M:4/4
K:G
V:1 treble 
V:2 treble 
V:3 bass 
V:4 bass 
V:1
 D>[DG] | [GB]2 [GB]>[GB] [GB]2 [DA]>[DG] | [Ec]2 [CE]>[CE] [CE]2 [DF]>[CE] | %3
w: 1.~Let~me live|in a house by * the|side of the road, Where the|
w: 2.~I see|from my house on * the|side of the road, By the|
w: 3.~Let~me live|in a house by * the|side of the road, Where my|
 [B,D]2 ([B,D][B,D]) [CE]2 ([CD][CD]) | [B,D]6 (D[DG]) | [GB]2 [GB]>[GB] [GB]2 [DA]>[DG] | %6
w: race of * men go *|by, The *|men who are good, and the|
w: side of~the * high- way~of *|life; The *|men who press on with the|
w: bro- ther * pass- es *|by, Let~me *|tell him of Christ who has|
 [Ec]2 [CE]>[CE] !fermata![CE]2 ([DF]>[CE]) | [B,D]2 [B,G]>[B,G] [CA]2 [DB]2 | [B,G]6 (GG) | %9
w: men who are bad, Just~as *|good and as bad as|I; I *|
w: ar- dor of hope, The *|men who are faint with|strife; But~I *|
w: love of his life, Left~His *|throne on the cross to|die; If~he *|
 B2 ([FB][FB]) [EB]2 [AB][AB] | [GB]2 [FB]2 [EB]2 [GB]2 | [EG]2 ([EG][EG]) [EA]2 [E^A]2 [^DB]6 | %12
w: would not * sit in the|scor- ner’s seat Or|hurt the * cyn- ic’s ban;|
w: turn not~a- * way from their|smiles nor tears, Both|parts of~an * in- finite plan;|
w: feels in~his * heart he would|like to~be good, I’ll|show him * how he can;|
 D>[DG] | [GB]2 [GB]>[GB] [GB]2 [DA]>[DG] | [Ec]2 [CE]>[CE] !fermata![CE]2 ([DF][CE]) | %15
w: Let me|live in a house by the|side of the road, And *|
w: Let me|live in a house by the|side of the road, And *|
w: Let me|live in a house by the|side of the road, And *|
 [B,D]2 ([B,G][B,G]) [CA]2 [DB]2 | [B,G]6 ||"^Refrain" [DB]2 | [Ec]2 [Ec]>[Ec] [Ec]2 [EG]>[Ec] | %19
w: be a * friend to|man.|||
w: be a * friend to|man.|For|Je- sus Him- self lived up-|
w: be a * friend to|man.|||
 [DB]2 [DB]2 [DB]2 [DB]2 | [DA]2 [DA]2 [^CG]2 [CE][CB] | [DA]6 D>[DG] | %22
w: |||
w: on the road Where|men were pass- ing a-|long; And His|
w: |||
 [GB]2 [GB]>[GB] [GB]2 [DA]>[DG] | [Ec]2 ([CE]>[CE]) !fermata![CE]2 ([DF][CE]) | %24
w: ||
w: great ten- der heart, and His|migh- ty * arm Were *|
w: ||
 [B,D]2 [B,G][B,G] [CA]2 [DB]2 | [B,G]6 |] %26
w: ||
w: rea- dy to bless the|throng.|
w: ||
V:2
 D3/2- x/ | x8 | x8 | x8 | x6 D x | x8 | x8 | x8 | x6 GG | B2 x6 | x8 | x14 | D3/2 x/ | x8 | x8 | %15
 x8 | x6 || x2 | x8 | x8 | x8 | x6 D3/2 x/ | x8 | x8 | x8 | x6 |] %26
V:3
 [G,B,]>[G,B,] | [G,D]2 [G,D]>[G,D] [G,D]2 [G,C]>[G,B,] | %2
 [C,G,]2 [C,G,]>[C,G,] [C,G,]2 [C,G,]>[C,G,] | [D,G,]2 ([D,G,][D,G,]) [D,F,]2 ([D,F,][D,F,]) | %4
 [G,,G,]6 G,G, | [G,D]2 [G,D]>[G,D] [G,D]2 [G,C]>[G,B,] | %6
 [C,G,]2 [C,G,]>[C,G,] !fermata![C,G,]2 ([C,G,]>[C,G,]) | [D,G,]2 [D,G,]>[D,G,] [D,F,]2 [D,G,]2 | %8
 [G,,D,]6 G,G, | B,2 ([A,B,][A,B,]) [G,B,]2 [F,B,][F,B,] | [E,B,]2 [^D,B,]2 [E,G,]2 [E,B,]2 | %11
 [C,C]2 ([C,C][C,C]) [C,C]2 [C,C]2 [B,,F,]6 | [G,B,]>[G,B,] | %13
 [G,D]2 [G,D]>[G,D] [G,D]2 [G,C]>[G,B,] | [C,G,]2 [C,G,]>[C,G,] !fermata![C,G,]2 [D,G,]2 | %15
 [D,G,]2 ([D,G,][D,G,]) [D,F,]2 [D,G,]2 | [G,,D,]6 || G,2 | %18
 [C,G,]2 [C,G,]>[C,G,] [C,G,]2 [C,C]>[C,G,] | G,2 G,2 G,2 G,2 | %20
 [F,A,]2 [F,A,]2 [E,A,]2 [A,,A,][A,,G,] | [D,F,]6 [G,B,]>[G,B,] | %22
 [G,D]2 [G,D]>[G,D] [G,D]2 [G,C]>[G,B,] | [C,G,]2 ([C,G,]>[C,G,]) !fermata![C,G,]2 [D,G,]2 | %24
 [D,G,]2 [D,G,][D,G,] [D,F,]2 [D,G,]2 | [G,,D,]6 |] %26
V:4
 x2 | x8 | x8 | x8 | x6 (G,G,) | x8 | x8 | x8 | x6 (G,G,) | B,2 x6 | x8 | x14 | x2 | x8 | x8 | x8 | %16
 x6 || G,2 | x8 | G,2 G,2 G,2 G,2 | x8 | x8 | x8 | x8 | x8 | x6 |] %26

